X: 96
T:Mad Robin
M:4/4s
L:1/4
Q:160
S:Playford
K:Gm
f d2 g|f B2 c|d e/2d/2 c B |c/2B/2A/2G/2 F2| f d2 g| f B2 c| d e/2d/2 c B | B2:|
|:f| b a g f |g d2 =e| d g g>^f| g3 f| f e2 d | f d2 c/2B/2| A G c>B| B3:|

